X:1
T:Coal Mountain Blues
M:4/4
L:1/8
K:C
 BB _B| =B_B B G- G2 z =B/2B/2| B B/2B/2B-A G2 G D-| B,2 z2 z4| z4 z|\
 z4 z _B/2 BB B/2-| _BB AG-G z B/2B/2 B-| _B B/2B/2 B/2- A3/2 G2 G D-|\
 G,2 z2 z4| z4 z B B/2B/2 B| BB BB D2 z E| G3 B G2 G D-| G,2 z z2||\
